lib/brands/logos/intuit.svg

<svg xmlns="http://www.w3.org/2000/svg" fill="none" aria-hidden="true" viewBox="0 0 197 69"><g id="Intuit"><g id="Vector"><path fill="#4E7AB0" fill-rule="evenodd" d="M130.598 61.0892H125.655C124.651 61.0892 123.88 60.5451 123.805 59.5347L123.726 57.5861C120.172 60.471 115.924 62.0256 111.445 62.0256C102.797 62.0256 99.2468 56.5007 99.2468 48.0872V25.0563C99.2468 23.7316 100.018 23.2634 101.25 23.2634H106.658C107.895 23.2634 108.591 23.6509 108.591 25.0563V46.451C108.591 50.7357 109.671 53.6927 114.307 53.6927C117.236 53.6927 120.946 52.0594 123.263 49.957V25.0563C123.263 23.7316 123.959 23.2634 125.19 23.2634H130.673C131.911 23.2634 132.607 23.6509 132.607 25.0563V58.9108C132.607 60.5451 132.141 61.0892 130.598 61.0892Z" clip-rule="evenodd"/><path fill="#4E7AB0" fill-rule="evenodd" d="M4.92505 24.817C4.92505 23.8854 5.38934 23.2615 6.31415 23.2615H12.8472C13.7739 23.2615 14.3135 23.8066 14.3135 24.817V59.1435C14.3135 60.5451 13.6938 61.0892 12.3829 61.0892H6.93383C5.54755 61.0892 4.92505 60.5451 4.92505 59.1435V24.817ZM142.27 24.817C142.27 23.8854 142.737 23.2615 143.661 23.2615H150.193C151.122 23.2615 151.661 23.8066 151.661 24.817V59.1435C151.661 60.5451 151.042 61.0892 149.729 61.0892H144.279C142.892 61.0892 142.27 60.5451 142.27 59.1435V24.817ZM55.7087 61.0892H50.1495C48.7594 61.0892 48.297 60.3894 48.297 59.0647V37.8836C48.297 33.6037 47.1405 30.5659 42.427 30.5659C39.4143 30.5659 35.7094 32.204 33.3154 34.3036V59.1435C33.3154 60.471 32.7749 61.0892 31.4649 61.0892H25.8247C24.6663 61.0892 23.9703 60.471 23.9703 59.2214V25.2177C23.9703 23.9709 24.5147 23.271 25.9028 23.271H30.9205C32.0007 23.271 32.7005 23.5816 32.7749 24.7496L32.8512 26.8273C36.4054 23.9491 40.8853 22.3148 45.3644 22.3148C54.0135 22.3148 57.564 27.7646 57.564 36.2522V59.0647C57.564 60.3894 57.1016 61.0892 55.7087 61.0892ZM83.2317 12.6364C83.2317 9.48272 80.6974 6.92447 77.568 6.92447C74.4413 6.92447 71.9033 9.48272 71.9033 12.6364C71.9033 15.791 74.4413 18.3454 77.568 18.3454C80.6974 18.3454 83.2317 15.791 83.2317 12.6364ZM91.2904 23.2615C92.2171 23.2615 92.7577 23.5721 92.7577 24.5853V30.0693C92.7577 31.0028 92.1408 31.5488 91.2122 31.5488H82.2626V59.1435C82.2626 60.5451 81.6458 61.0892 80.2539 61.0892H74.8811C73.4901 61.0892 72.8742 60.5451 72.8742 59.1435V31.5488H63.9218C62.9961 31.5488 62.3783 31.0028 62.3783 30.0693V24.5853C62.3783 23.5721 62.9179 23.2615 63.8455 23.2615H91.2904ZM179.062 12.6364C179.062 9.48272 176.526 6.92447 173.397 6.92447C170.269 6.92447 167.733 9.48272 167.733 12.6364C167.733 15.791 170.269 18.3454 173.397 18.3454C176.526 18.3454 179.062 15.791 179.062 12.6364ZM187.12 23.2615C188.045 23.2615 188.585 23.5721 188.585 24.5853V30.0693C188.585 31.0028 187.969 31.5488 187.04 31.5488H178.091V59.1435C178.091 60.5451 177.475 61.0892 176.084 61.0892H170.708C169.318 61.0892 168.702 60.5451 168.702 59.1435L168.701 31.5488H159.753C158.824 31.5488 158.206 31.0028 158.206 30.0693V24.5853C158.206 23.5721 158.749 23.2615 159.672 23.2615H187.12ZM189.045 58.643H189.521C189.923 58.643 190.289 58.6241 190.289 58.1587C190.289 57.7666 189.957 57.7067 189.648 57.7067H189.045V58.643ZM188.591 57.3354H189.72C190.417 57.3354 190.745 57.6118 190.745 58.1796C190.745 58.7095 190.413 58.9346 189.976 58.9811L190.813 60.283H190.323L189.529 59.0134H189.045V60.283H188.591V57.3354ZM189.568 60.9639C190.726 60.9639 191.621 60.0342 191.621 58.7988C191.621 57.5928 190.726 56.6603 189.568 56.6603C188.397 56.6603 187.501 57.5928 187.501 58.7988C187.501 60.0342 188.397 60.9639 189.568 60.9639ZM189.568 56.2899C190.933 56.2899 192.075 57.3753 192.075 58.7988C192.075 60.2469 190.933 61.3342 189.568 61.3342C188.197 61.3342 187.047 60.2469 187.047 58.7988C187.047 57.3753 188.197 56.2899 189.568 56.2899Z" clip-rule="evenodd"/></g></g></svg>

<svg xmlns="http://www.w3.org/2000/svg" fill="none" aria-hidden="true" viewBox="0 0 197 69"><path fill="#4E7AB0" fill-rule="evenodd" d="M130.598 61.09h-4.943c-1.004 0-1.775-.545-1.85-1.555l-.079-1.949c-3.554 2.885-7.802 4.44-12.281 4.44-8.648 0-12.198-5.525-12.198-13.939v-23.03c0-1.325.771-1.794 2.003-1.794h5.408c1.237 0 1.933.388 1.933 1.793v21.395c0 4.285 1.08 7.242 5.715 7.242 2.93 0 6.64-1.634 8.957-3.736v-24.9c0-1.325.696-1.794 1.927-1.794h5.483c1.238 0 1.934.388 1.934 1.793v33.855c0 1.634-.466 2.178-2.009 2.178ZM4.925 24.817c0-.932.464-1.555 1.39-1.555h6.532c.927 0 1.466.545 1.466 1.555v34.327c0 1.401-.62 1.945-1.93 1.945h-5.45c-1.385 0-2.008-.544-2.008-1.945V24.817Zm137.345 0c0-.932.467-1.555 1.391-1.555h6.532c.928 0 1.468.545 1.468 1.555v34.327c0 1.401-.619 1.945-1.932 1.945h-5.45c-1.387 0-2.009-.544-2.009-1.945V24.817ZM55.709 61.089h-5.56c-1.39 0-1.852-.7-1.852-2.024V37.884c0-4.28-1.156-7.318-5.87-7.318-3.013 0-6.718 1.638-9.112 3.738v24.84c0 1.327-.54 1.945-1.85 1.945h-5.64c-1.159 0-1.855-.618-1.855-1.868V25.218c0-1.247.545-1.947 1.933-1.947h5.018c1.08 0 1.78.31 1.854 1.479l.076 2.077c3.554-2.878 8.034-4.512 12.513-4.512 8.65 0 12.2 5.45 12.2 13.937v22.813c0 1.324-.462 2.024-1.855 2.024Zm27.523-48.453c0-3.153-2.535-5.712-5.664-5.712-3.127 0-5.665 2.559-5.665 5.712 0 3.155 2.538 5.71 5.665 5.71 3.13 0 5.664-2.555 5.664-5.71Zm8.058 10.626c.927 0 1.468.31 1.468 1.323v5.484c0 .934-.617 1.48-1.546 1.48h-8.95v27.595c0 1.401-.616 1.945-2.008 1.945H74.88c-1.39 0-2.007-.544-2.007-1.945V31.549h-8.952c-.926 0-1.544-.546-1.544-1.48v-5.484c0-1.013.54-1.323 1.468-1.323H91.29Zm87.772-10.626c0-3.153-2.536-5.712-5.665-5.712-3.128 0-5.664 2.559-5.664 5.712 0 3.155 2.536 5.71 5.664 5.71 3.129 0 5.665-2.555 5.665-5.71Zm8.058 10.626c.925 0 1.465.31 1.465 1.323v5.484c0 .934-.616 1.48-1.545 1.48h-8.949v27.595c0 1.401-.616 1.945-2.007 1.945h-5.376c-1.39 0-2.006-.544-2.006-1.945l-.002-27.595h-8.947c-.929 0-1.547-.546-1.547-1.48v-5.484c0-1.013.543-1.323 1.466-1.323h27.448Zm1.925 35.381h.476c.402 0 .768-.019.768-.484 0-.392-.332-.452-.641-.452h-.603v.936Zm-.454-1.308h1.129c.697 0 1.025.277 1.025.845 0 .53-.332.755-.769.801l.837 1.302h-.49l-.795-1.27h-.483v1.27h-.454v-2.948Zm.977 3.629c1.158 0 2.053-.93 2.053-2.165 0-1.206-.895-2.139-2.053-2.139-1.171 0-2.067.933-2.067 2.139 0 1.235.896 2.165 2.067 2.165Zm0-4.674a2.496 2.496 0 0 1 2.507 2.509 2.503 2.503 0 0 1-2.507 2.535 2.511 2.511 0 0 1-2.521-2.535 2.504 2.504 0 0 1 2.521-2.51Z" clip-rule="evenodd"/></svg>
